packages/dnb-eufemia/assets/icons/above_the_line_medium.svg

<svg width="24" height="24" viewBox="0 0 24 24" fill="none" xmlns="http://www.w3.org/2000/svg">
<path d="M11.25 21C11.25 21.4142 11.5858 21.75 12 21.75C12.4142 21.75 12.75 21.4142 12.75 21H11.25ZM12 9L12.5057 8.44611C12.2096 8.17577 11.7532 8.18615 11.4697 8.46967L12 9ZM7.46967 12.4697C7.17678 12.7626 7.17678 13.2374 7.46967 13.5303C7.76256 13.8232 8.23744 13.8232 8.53033 13.5303L7.46967 12.4697ZM15.4425 13.5017C15.7196 13.8096 16.1938 13.8346 16.5017 13.5575C16.8096 13.2804 16.8346 12.8062 16.5575 12.4983L15.4425 13.5017ZM2 2.75C1.58579 2.75 1.25 3.08579 1.25 3.5C1.25 3.91421 1.58579 4.25 2 4.25V2.75ZM4 4.25C4.41421 4.25 4.75 3.91421 4.75 3.5C4.75 3.08579 4.41421 2.75 4 2.75V4.25ZM8 2.75C7.58579 2.75 7.25 3.08579 7.25 3.5C7.25 3.91421 7.58579 4.25 8 4.25V2.75ZM10 4.25C10.4142 4.25 10.75 3.91421 10.75 3.5C10.75 3.08579 10.4142 2.75 10 2.75V4.25ZM14 2.75C13.5858 2.75 13.25 3.08579 13.25 3.5C13.25 3.91421 13.5858 4.25 14 4.25V2.75ZM16 4.25C16.4142 4.25 16.75 3.91421 16.75 3.5C16.75 3.08579 16.4142 2.75 16 2.75V4.25ZM20 2.75C19.5858 2.75 19.25 3.08579 19.25 3.5C19.25 3.91421 19.5858 4.25 20 4.25V2.75ZM22 4.25C22.4142 4.25 22.75 3.91421 22.75 3.5C22.75 3.08579 22.4142 2.75 22 2.75V4.25ZM12.75 21V9H11.25V21H12.75ZM11.4697 8.46967L7.46967 12.4697L8.53033 13.5303L12.5303 9.53033L11.4697 8.46967ZM12 9C11.4943 9.55389 11.4943 9.55388 11.4943 9.55388C11.4943 9.55388 11.4943 9.55389 11.4943 9.5539C11.4944 9.55394 11.4945 9.554 11.4946 9.5541C11.4948 9.55429 11.4951 9.55461 11.4956 9.55505C11.4966 9.55593 11.4981 9.55729 11.5001 9.55915C11.5041 9.56285 11.5103 9.56848 11.5184 9.57597C11.5348 9.59097 11.5592 9.61341 11.591 9.64279C11.6546 9.70155 11.7479 9.78802 11.8654 9.89802C12.1006 10.1181 12.4326 10.432 12.8192 10.8065C13.594 11.5571 14.5803 12.5436 15.4425 13.5017L16.5575 12.4983C15.6624 11.5037 14.6486 10.4903 13.8628 9.72908C13.469 9.3476 13.1306 9.02764 12.8903 8.8028C12.7702 8.69035 12.6745 8.60162 12.6086 8.54078C12.5757 8.51037 12.5502 8.48692 12.5328 8.47096C12.5241 8.46299 12.5175 8.45688 12.5129 8.45272C12.5106 8.45064 12.5089 8.44904 12.5077 8.44793C12.5071 8.44738 12.5066 8.44695 12.5063 8.44665C12.5061 8.44649 12.506 8.44637 12.5059 8.44628C12.5058 8.44624 12.5058 8.44619 12.5057 8.44617C12.5057 8.44613 12.5057 8.44611 12 9ZM2 4.25H4V2.75H2V4.25ZM8 4.25H10V2.75H8V4.25ZM14 4.25H16V2.75H14V4.25ZM20 4.25H22V2.75H20V4.25Z" fill="black"/>
</svg>

<svg width="24" height="24" viewBox="0 0 24 24" fill="none" xmlns="http://www.w3.org/2000/svg"><path d="M11.25 21a.75.75 0 0 0 1.5 0h-1.5ZM12 9l.506-.554a.75.75 0 0 0-1.036.024L12 9Zm-4.53 3.47a.75.75 0 1 0 1.06 1.06l-1.06-1.06Zm7.973 1.032a.75.75 0 1 0 1.115-1.004l-1.115 1.004ZM2 2.75a.75.75 0 0 0 0 1.5v-1.5Zm2 1.5a.75.75 0 0 0 0-1.5v1.5Zm4-1.5a.75.75 0 0 0 0 1.5v-1.5Zm2 1.5a.75.75 0 0 0 0-1.5v1.5Zm4-1.5a.75.75 0 0 0 0 1.5v-1.5Zm2 1.5a.75.75 0 0 0 0-1.5v1.5Zm4-1.5a.75.75 0 0 0 0 1.5v-1.5Zm2 1.5a.75.75 0 0 0 0-1.5v1.5ZM12.75 21V9h-1.5v12h1.5ZM11.47 8.47l-4 4 1.06 1.06 4-4-1.06-1.06ZM12 9l-.506.554.002.001.004.004.018.017a20.855 20.855 0 0 1 .347.322c.236.22.568.534.954.909a57.35 57.35 0 0 1 2.623 2.695l1.116-1.004a58.832 58.832 0 0 0-2.695-2.769 78.379 78.379 0 0 0-1.33-1.258l-.02-.018-.005-.005-.002-.001L12 9ZM2 4.25h2v-1.5H2v1.5Zm6 0h2v-1.5H8v1.5Zm6 0h2v-1.5h-2v1.5Zm6 0h2v-1.5h-2v1.5Z" fill="#000"/></svg>
